X:1
T:Title
%%score { ( 1 3 5 ) | ( 2 4 6 ) }
L:1/8
Q:1/4=56
M:4/4
K:D
V:1 treble nm="Piano, Harmor 1" snm="Pno."
V:3 treble 
V:5 treble 
V:2 treble 
V:4 treble 
V:6 treble 
V:1
 f2 e2 d2 c2 | B2 A2 B2 c2 | f2 e2 d2 c2 | B2 A2 B2 c2 | f2 e2 d2 c2 | B2 AA BB c2 | f2 e2 z2 aA | %7
 BGAF B2 d/4e/4d/4e/4d/c/ | f2 e2 z4 | g/f/e/g/ f/e/d/c/ B/A/B AG | f2 e2 z2 c2 | z4 z d z2 | %12
 z f e2 Fd z/ f3/2 | .g2 a2 b2 c'2 | d'd .c2 z2 d2 | z4 z2 z a | %16
 [da]/f/4g/4a/f/ .a/B/4c/4.d/f/4g/4 f/d/4e/4f/B/ .[cf]a/b/ | b2 a2 b2 c'2 | %18
 .d'2 z/ d/4e/4f/4e/4d/4c/4 z2 d2 | z/ d3/2 d.B z/ d/g ea | z z/ f/ z/ B/4c/4d/<e/ z2 f2 | %21
 b2 a2 z4 | z2 z z/4 e3/4 z4 | z2 z d z/ .d3/2 z a | z/ ff/ z/ B/4c/4d/<e/ z/ d3/2 c2 | %25
 B/ z/4 A/4G .F/>E/F/4.G/B/4 B/ z/4 A/4 z/ c/4d/4 c/ z/4 d/4e/4f/4g/4a/4 | f/d/4e/4f z2 z2 c2 | %27
 z4 z2 c/ z/4 d/4e/4f/4g/4a/4 | [df]2 e2 [Bd]2 c2 | [GB]2 AA BB c2 | f2 e2 z2 aA | %31
 BGAF B2 d/4e/4d/4e/4d/c/ | f2 e2 z4 | g/f/e/g/ f/e/d/c/ B/A/B AG | f2 e2 z2 c2 | z4 z d z2 | %36
 z f e2 Fd z/ f3/2 | .g2 a2 b2 c'2 | d'd .c2 z2 d2 | z4 z2 z a | %40
 [da]/f/4g/4a/f/ .a/B/4c/4.d/f/4g/4 f/d/4e/4f/B/ .[cf]a/b/ | b2 a2 b2 c'2 | %42
 .d'2 z/ d/4e/4f/4e/4d/4c/4 z2 d2 | z/ d3/2 d.B z/ d/g ea | z z/ f/ z/ B/4c/4d/<e/ z2 f2 | %45
 b2 a2 z4 | z2 z z/4 e3/4 z4 | z2 z d z/ .d3/2 z a | %48
 a/f/4g/4a/f/4g/4 .a z/4 e/4f/4g/4 .f/>e/f/F/4G/4 .A2 | z z/ F/4E/4 F/4E/4D3/2 z4 | z2 z f/<e/ z4 | %51
 z4 z2 c/ z/4 d/4e/4f/4g/4a/4 | d2 A2 B2 F2 | G2 D2 G2 A2 | f2 e2 d2 c2 | B2 A2 B2 c2 | d8 |] %57
V:2
 z8 | z8 | z8 | z8 | DFAG FDFE | DB, .D2 .G2 AG | FDEc df c2 | z4 Dd c2 | z F z2 z/ d3/2 z2 | %9
 B2 z2 z4 | D/.EG/ E/E/A/G/ F/B/A/G/ A/G/F/E/ | z4 z2 .A2 | [DF].[Fd] .[CA]E/F/ .D.[Dc] .[Fc]>b | %13
 z/ .fg/ z/ e/A .[GB]G/F/ .[EA]F/E/ | .[DF].[DF] .[EA]A/G/ F/B/A/G/ A/G/F/E/ | %15
 D/B,/G A.[FB] .[DG].[Ed] .[Ad]/B/[Ad]/G/ | %16
 z/ c/.[d-f]/d/4g/4 z/4 A/4A/E/F/ .Dd/-[Fd-]/4[Gd]/4 A/4B/4A/4G/4A/4F/4G/4A/4 | %17
 [Gg]/B/4A/4G/F/4E/4 F/4E/4D/4E/4F/4G/4A/4B/4 [GB]/A/4A/4G/F/ .[EA]/G/.F/>a/ | %18
 D/E/d/-[Gd]/ .[Ac]/E/A/G/ .FB/-[DB-]/4[EB]/4 F/4G/4F/4E/4(3:2:2F3/8d3/8-d/ | %19
 .[DB]/>c/B/A/4G/4 A/4G/4F/4G/4A/4B/4A/ [GB]/F/[Ed]/B/4B/4 A/4B/4B/.[Ae]/G/ | d2 z2 B2 z2 | %21
 G/B/4A/4G D/ z/4 E/4F/4G/4A/4B/4 G/B/4A/4B/c/4d/4 A/4B/4c/4d/4e/4f/4g/4a/4 | %22
 z d z/ .d3/2 z B z z/ z/4 d/4 | z/ d3/2- d z z2 z/ c3/2 | %24
 .[df]2 .[Ae]3/2f/4g/4 .[Bd]2 .[FA]3/2G/4A/4 | .G3/2F/4E/4 z/4 E/4D3/2 .G2 A/4B/4c3/2 | %26
 z2 z f/<e/ z d z z/ c/ | %27
 B/d/4c/4 z/ A/4G/4 A/4G/4F/4G/4 z/4 B/4c/4d/4 B/d/4c/4d/c/4B/4 A/4B/4c3/2 | DFAG FDFE | %29
 DB, .D2 .G2 AG | FDEc df c2 | z4 Dd c2 | z F z2 z/ d3/2 z2 | B2 z2 z4 | %34
 D/.EG/ E/E/A/G/ F/B/A/G/ A/G/F/E/ | z4 z2 .A2 | [DF].[Fd] .[CA]E/F/ .D.[Dc] .[Fc]>b | %37
 z/ .fg/ z/ e/A .[GB]G/F/ .[EA]F/E/ | .[DF].[DF] .[EA]A/G/ F/B/A/G/ A/G/F/E/ | %39
 D/B,/G A.[FB] .[DG].[Ed] .[Ad]/B/[Ad]/G/ | %40
 z/ c/.[d-f]/d/4g/4 z/4 A/4A/E/F/ .Dd/-[Fd-]/4[Gd]/4 A/4B/4A/4G/4A/4F/4G/4A/4 | %41
 [Gg]/B/4A/4G/F/4E/4 F/4E/4D/4E/4F/4G/4A/4B/4 [GB]/A/4A/4G/F/ .[EA]/G/.F/>a/ | %42
 D/E/d/-[Gd]/ .[Ac]/E/A/G/ .FB/-[DB-]/4[EB]/4 F/4G/4F/4E/4(3:2:2F3/8d3/8-d/ | %43
 .[DB]/>c/B/A/4G/4 A/4G/4F/4G/4A/4B/4A/ [GB]/F/[Ed]/B/4B/4 A/4B/4B/.[Ae]/G/ | d2 z2 B2 z2 | %45
 G/B/4A/4G D/ z/4 E/4F/4G/4A/4B/4 G/B/4A/4B/c/4d/4 A/4B/4c/4d/4e/4f/4g/4a/4 | %46
 z d z/ .d3/2 z B z z/ z/4 d/4 | z/ d3/2- d z z2 z/ c3/2 | %48
 d2 (3A/4A3/4-[A-c]/A B2 z/4 B/4A/4G/4.A/G/4A/4 | %49
 G/B/4A/4G D/ z/4 E/4F/4G/4A/4B/4 G/B/4A/4B/c/4d/4 A/4B/4c/4d/4e/4f/4g/4a/4 | z4 z2 z z/ c/ | %51
 B/d/4c/4 z/ A/4G/4 A/4G/4F/4G/4 z/4 B/4c/4d/4 B/d/4c/4d/c/4B/4 A/4B/4c3/2 | z8 | z8 | z8 | z8 | %56
 z8 |] %57
V:3
 x8 | x8 | x8 | x8 | x8 | x8 | x8 | x8 | z/ c/.d .AG .[Fd]c/B/ c/f/a/b/ | z4 z2 c2 | F.F.Ac dfaA | %11
 .B>c d/c/B/A/ z/ .FB/ d/4e/4d/4e/4d/c/ | d/.cD/ z/ A/G z/ .dB/ .f.a | %13
 b-[eb] .fd/c/ z/ A/B z/ G/G | z/ .EG/ z/ E/c d[Bf]aA | d2 dd dg z/ .d3/2 | z2 e-e/<e/ z2 z/ f3/2 | %17
 z/ f/e/g/ f/e/d/c/ z/ .B/B/c/4d/4 z/4 B/4c/4d/4e/4f/4.g/ | %18
 f/d/4e/4f/e/4d/4 (3:2:2e3/8c3/8-c3/2 d/B/4c/4d/G/ A/.Gc/4d/4 | %19
 .d>c z/ c/d/-[cd]/4d/4 d/ z/4 c/4 z/ .c/ z/ c/4d/4 z/4 f/4g/4a/4 | %20
 a/f/4g/<.a/g/4 (3:2:2a3/8A3/8-A3/2 f/d/4e/4f/F/4G/4 z/4 B/4A/4G/4A/<F/ | %21
 z z/ F/4E/4 z/4 E/4D3/2 b2 c'2 | d'f .e.f/d/4c/4 d/B/4c/4d [cd]2 | %23
 .d3/2A/4G/4 A/4G/4F/4G/4 z/4 B/4c/4d/4 d/ z/4 c/4g .[ce] z/4 f/4g/4a/4 | %24
 .a/>g/.a/>g/ (3:2:2a3/8A3/8-A3/2 .f/>e/f/F/4G/4 z/4 B/4A/4G/4A/<F/ | z/ B3/2 A>A z/ B/B z2 | x8 | %27
 x8 | x8 | x8 | x8 | x8 | z/ c/.d .AG .[Fd]c/B/ c/f/a/b/ | z4 z2 c2 | F.F.Ac dfaA | %35
 .B>c d/c/B/A/ z/ .FB/ d/4e/4d/4e/4d/c/ | d/.cD/ z/ A/G z/ .dB/ .f.a | %37
 b-[eb] .fd/c/ z/ A/B z/ G/G | z/ .EG/ z/ E/c d[Bf]aA | d2 dd dg z/ .d3/2 | z2 e-e/<e/ z2 z/ f3/2 | %41
 z/ f/e/g/ f/e/d/c/ z/ .B/B/c/4d/4 z/4 B/4c/4d/4e/4f/4.g/ | %42
 f/d/4e/4f/e/4d/4 (3:2:2e3/8c3/8-c3/2 d/B/4c/4d/G/ A/.Gc/4d/4 | %43
 .d>c z/ c/d/-[cd]/4d/4 d/ z/4 c/4 z/ .c/ z/ c/4d/4 z/4 f/4g/4a/4 | %44
 a/f/4g/<.a/g/4 (3:2:2a3/8A3/8-A3/2 f/d/4e/4f/F/4G/4 z/4 B/4A/4G/4A/<F/ | %45
 z z/ F/4E/4 z/4 E/4D3/2 b2 c'2 | d'f .e.f/d/4c/4 d/B/4c/4d [cd]2 | %47
 .d3/2A/4G/4 A/4G/4F/4G/4 z/4 B/4c/4d/4 d/ z/4 c/4g .[ce] z/4 f/4g/4a/4 | z4 z/ d3/2- d2 | x8 | %50
 z z/ e/4d/4 e/4c/4(3:2:2d3/8e3/8-e z z/ D/4E/4 c2 | x8 | x8 | x8 | x8 | x8 | x8 |] %57
V:4
 x8 | x8 | x8 | x8 | x8 | x8 | x8 | x8 | .[Dd]>D C/A/E/F/ .DDFE | DB,[DA]A GG/F/ E/G/F/E/ | %10
 z D z2 z4 | D/B,/G AF .[DG].E c/-[Bc-]/[Ac]/G/ | z4 z2 z E | DB, .D2 z4 | x8 | x8 | %16
 .F>D .C2 z .c z2 | z4 z2 z z/ E/ | z .F z2 z .A z z/ E/ | z/ .B,3/2 z2 z4 | %20
 F.f .[Ae]3/2f/4g/4 z d .[FA]3/2G/4A/4 | z2 .F2 z4 | z4 z2 z z/ c/ | %23
 .B/>c/B z A .Bd/c/4B/4 A/4.B/d/4.e | x8 | z2 .D2 z4 | %26
 z z/ e/4d/4 e/4c/4(3:2:2d3/8e3/8-e/d/4c/4 d/B/4c/4 z/ D/4E/4 F/4G/4F/4E/4F/4.d/d/4 | z B z A z4 | %28
 x8 | x8 | x8 | x8 | .[Dd]>D C/A/E/F/ .DDFE | DB,[DA]A GG/F/ E/G/F/E/ | z D z2 z4 | %35
 D/B,/G AF .[DG].E c/-[Bc-]/[Ac]/G/ | z4 z2 z E | DB, .D2 z4 | x8 | x8 | .F>D .C2 z .c z2 | %41
 z4 z2 z z/ E/ | z .F z2 z .A z z/ E/ | z/ .B,3/2 z2 z4 | F.f .[Ae]3/2f/4g/4 z d .[FA]3/2G/4A/4 | %45
 z2 .F2 z4 | z4 z2 z z/ c/ | .B/>c/B z A .Bd/c/4B/4 A/4.B/d/4.e | z2 z/ .B/d- d/ z/ z F-F/<F/ | %49
 x8 | f/d/4e/4f z z/ d/4c/4 d/B/4c/4d F/4G/4F/4E/4F/4.d/d/4 | z B z A z4 | x8 | x8 | x8 | x8 | %56
 x8 |] %57
V:5
 x8 | x8 | x8 | x8 | x8 | x8 | x8 | x8 | x8 | x8 | x8 | z B z2 B2 z2 | x8 | x8 | x8 | %15
 BB/c/ z/ .cA/ z/ .FB/ (3e/4e3/4e/ z/ c/ | x8 | x8 | x8 | x8 | x8 | x8 | x8 | x8 | x8 | x8 | x8 | %27
 x8 | x8 | x8 | x8 | x8 | x8 | x8 | x8 | z B z2 B2 z2 | x8 | x8 | x8 | %39
 BB/c/ z/ .cA/ z/ .FB/ (3e/4e3/4e/ z/ c/ | x8 | x8 | x8 | x8 | x8 | x8 | x8 | x8 | x8 | x8 | x8 | %51
 x8 | x8 | x8 | x8 | x8 | x8 |] %57
V:6
 x8 | x8 | x8 | x8 | x8 | x8 | x8 | x8 | x8 | x8 | x8 | x8 | x8 | x8 | x8 | x8 | x8 | x8 | x8 | %19
 x8 | x8 | x8 | f/d/4e/4 z/ e/4d/4 (3c/4c3/4-[ce]/-[ce] z z/ D/4E/4 F/4G/4F/4E/4(3:2:2F3/8d3/8-d/ | %23
 x8 | x8 | x8 | x8 | x8 | x8 | x8 | x8 | x8 | x8 | x8 | x8 | x8 | x8 | x8 | x8 | x8 | x8 | x8 | %42
 x8 | x8 | x8 | x8 | %46
 f/d/4e/4 z/ e/4d/4 (3c/4c3/4-[ce]/-[ce] z z/ D/4E/4 F/4G/4F/4E/4(3:2:2F3/8d3/8-d/ | x8 | x8 | x8 | %50
 x8 | x8 | x8 | x8 | x8 | x8 | x8 |] %57

